X:1
T: Horsburgh Castle   [D]
C: Ian Hardie
R: march, air
Z: 2014 John Chambers <jc:trillian.mit.edu>
F: http://ramshaw.info/tunes/2014-08/Horsburgh_Castle.pdf
N: Taught by Ronan Martin at Boston Harbor 2014
M: C
L: 1/8
F:http://trillian.mit.edu/~jc/music/abc/session/SlowScottish/march/Horsburgh_Castle-D,Hp-32-5.abc	 2014-09-26 153401 UT
K: D
ag |\
"D"f2 ga "A7"g>e ce | "D(Bm)"d>c de f2 A2 | "G(Em)"B2 g>f "E7"ed cd | "A"f4 e2 ||
dc |\
"G"B2 dg "D"A2  df | "G(Em)"G2 d>e "A7"dc BA | "D"f>g af "A7"ge ce | "D"d2-"G"d2 "D"d2 :|
|: Ad |\
"D"f2 Ad "G"g2  fg | "D"a>g fa "Bm"d2 ef | "Em"g2 a>g "D"fa gf | "E7"f4 "A7"e2 ||
[1 Ad |\
"D"f2 Ad "G"g2  fg | "D"a>g fa "Bm"d2 dc | "Em"B2 g>e "A7"fa ce | "D"d2-"G"d2 "D"d2 :|
[2 dc |\
"G"B2 dg "D"A2  df | "G(Em)"G2 d>e "A7"dc BA | "D"f>g af "A7"ge ce | "D"d2-"G"d2 "D"d2 |]
%%sep 1 1 500

